v2/perps-v2/ui/public/asset-icons/FLOW.svg

<svg width="42" height="42" fill="none" xmlns="http://www.w3.org/2000/svg"><g clip-path="url(#a)"><g clip-path="url(#b)"><path d="M21 42c11.598 0 21-9.402 21-21S32.598 0 21 0 0 9.402 0 21s9.402 21 21 21Z" fill="#00EF8B"/><path d="M30.198 17.724h-5.922v5.922h5.922v-5.922Zm-11.844 8.148a2.24 2.24 0 0 1-2.226 2.226 2.24 2.24 0 0 1-2.226-2.226 2.24 2.24 0 0 1 2.226-2.226h2.226v-5.922h-2.226c-4.494 0-8.148 3.654-8.148 8.148s3.654 8.148 8.148 8.148 8.148-3.654 8.148-8.148v-2.226h-5.922v2.226Zm8.148-11.13h6.678V8.82h-6.678c-4.494 0-8.148 3.654-8.148 8.148v.756h5.922v-.756a2.24 2.24 0 0 1 2.226-2.226Z" fill="#fff"/><path d="M24.276 17.724h-5.922v5.922h5.922v-5.922Z" fill="#16FF99"/></g></g><defs><clipPath id="a"><path fill="#fff" d="M0 0h42v42H0z"/></clipPath><clipPath id="b"><path fill="#fff" d="M0 0h42v42H0z"/></clipPath></defs></svg>

<svg width="42" height="42" viewBox="0 0 42 42" fill="none" xmlns="http://www.w3.org/2000/svg">
<g clip-path="url(#clip0_5604_37129)">
<g clip-path="url(#clip1_5604_37129)">
<path d="M21 42C32.598 42 42 32.598 42 21C42 9.40202 32.598 0 21 0C9.40202 0 0 9.40202 0 21C0 32.598 9.40202 42 21 42Z" fill="#00EF8B"/>
<path d="M30.198 17.724H24.276V23.646H30.198V17.724Z" fill="white"/>
<path d="M18.354 25.872C18.354 27.09 17.346 28.098 16.128 28.098C14.91 28.098 13.902 27.09 13.902 25.872C13.902 24.654 14.91 23.646 16.128 23.646H18.354V17.724H16.128C11.634 17.724 7.97998 21.378 7.97998 25.872C7.97998 30.366 11.634 34.02 16.128 34.02C20.622 34.02 24.276 30.366 24.276 25.872V23.646H18.354V25.872Z" fill="white"/>
<path d="M26.502 14.742H33.18V8.82001H26.502C22.008 8.82001 18.354 12.474 18.354 16.968V17.724H24.276V16.968C24.276 15.75 25.284 14.742 26.502 14.742Z" fill="white"/>
<path d="M24.276 17.724H18.354V23.646H24.276V17.724Z" fill="#16FF99"/>
</g>
</g>
<defs>
<clipPath id="clip0_5604_37129">
<rect width="42" height="42" fill="white"/>
</clipPath>
<clipPath id="clip1_5604_37129">
<rect width="42" height="42" fill="white"/>
</clipPath>
</defs>
</svg>
